**harm	**harte	**silbe	**rhyme	**timestamp	**phrase	**leadinstrument	**kern
*M4/4	*M4/4	*	*	*	*	*	*
*	*	*	*	*	*	*	*
*	*	*	*	*	*	*	*
*d:	*d:	*	*	*d:	*d:	*d:	*d:
*	*	*	*	*	*	*	*
*	*	*	*	*	*	*	*
1r;	N	.	.	.	.	r	1r;
=1	=1	=1	=1	=1	=1	=1	=1
*>Letter>A	*>Letter>A	*>Letter>A	*>Letter>A	*>Letter>A	*>Letter>A	*>Letter>A	*>Letter>A
*>Label>Intro	*>Label>Intro	*>Label>Intro	*>Label>Intro	*>Label>Intro	*>Label>Intro	*>Label>Intro	*>Label>Intro
1r	N	.	.	0.005	newline	drums	1r
=2	=2	=2	=2	=2	=2	=2	=2
1r	N	.	.	.	.	drums	1r
.	.	.	.	.	.	.	.
.	.	.	.	.	.	.	.
.	.	Now	.	.	.	.	.
=3	=3	=3	=3	=3	=3	=3	=3
*>Letter>B2	*>Letter>B2	*>Letter>B2	*>Letter>B2	*>Letter>B2	*>Letter>B2	*>Letter>B2	*>Letter>B2
*>Label>Verse	*>Label>Verse	*>Label>Verse	*>Label>Verse	*>Label>Verse	*>Label>Verse	*>Label>Verse	*>Label>Verse
1r	N	ev-	.	.	.	drums	1r
.	.	-ery-	.	.	.	.	.
.	.	-bo-	.	.	.	.	.
.	.	_	.	.	.	.	.
.	.	-dy	.	.	.	.	.
.	.	.	.	.	.	.	.
.	.	.	.	.	.	.	.
=4	=4	=4	=4	=4	=4	=4	=4
1r	N	have	.	.	.	drums	1r
.	.	you	.	.	.	.	.
.	.	heard?.	A	.	.	.	.
.	.	_	.	.	.	.	.
.	.	_	.	.	.	.	.
.	.	.	.	.	.	.	.
.	.	.	.	.	.	.	.
.	.	If	.	.	.	.	.
.	.	you're	.	.	.	.	.
=5	=5	=5	=5	=5	=5	=5	=5
1r	N	in	.	.	.	drums	1r
.	.	the	.	.	.	.	.
.	.	game:	.	.	.	.	.
.	.	_	.	.	.	.	.
.	.	_	.	.	.	.	.
.	.	.	.	.	.	.	.
.	.	then	.	.	.	.	.
.	.	the	.	.	.	.	.
=6	=6	=6	=6	=6	=6	=6	=6
1r	N	stroke's	.	.	.	drums	1r
.	.	the	.	.	.	.	.
.	.	word.	A	.	.	.	.
.	.	.	.	.	.	.	.
.	.	.	.	.	.	.	.
=7	=7	=7	=7	=7	=7	=7	=7
1iv	G:5	.	.	15.735	newline	voice	1G 1b- 1dd
.	.	.	.	.	.	.	.
.	.	Don't	.	.	.	.	.
.	.	take	.	.	.	.	.
.	.	no	.	.	.	.	.
.	.	rh-	(B	.	.	.	.
.	.	-ythm.	b)	.	.	.	.
=8	=8	=8	=8	=8	=8	=8	=8
1i	D:5	.	.	.	.	voice	1D 1f 1a
.	.	Don't	.	.	.	.	.
.	.	take	.	.	.	.	.
.	.	no	.	.	.	.	.
.	.	style.	C	.	.	.	.
.	.	_	.	.	.	.	.
.	.	_	.	.	.	.	.
.	.	.	.	.	.	.	.
=9	=9	=9	=9	=9	=9	=9	=9
1iv	G:5	.	.	.	.	voice	1G 1b- 1dd
.	.	.	.	.	.	.	.
.	.	Got-	.	.	.	.	.
.	.	-ta	.	.	.	.	.
.	.	thirst	.	.	.	.	.
.	.	for	.	.	.	.	.
.	.	kil-	(B	.	.	.	.
.	.	-lin'.	b)	.	.	.	.
.	.	_	.	.	.	.	.
=10	=10	=10	=10	=10	=10	=10	=10
1v	A:5	.	.	.	.	voice	1A 1cc 1ee
.	G:1	Grab	.	.	.	voice	.
.	.	your	.	.	.	.	.
.	F:1	vile	C	.	.	voice	.
.	E:1	and.	.	.	.	voice	.
=11	=11	=11	=11	=11	=11	=11	=11
*>Letter>C	*>Letter>C	*>Letter>C	*>Letter>C	*>Letter>C	*>Letter>C	*>Letter>C	*>Letter>C
*>Label>Trans	*>Label>Trans	*>Label>Trans	*>Label>Trans	*>Label>Trans	*>Label>Trans	*>Label>Trans	*>Label>Trans
1i7	D:min7	.	.	26.233	newline	guitar	1D 1f 1a 1cc#
.	C:maj/2	.	.	.	.	guitar	.
.	D:min7	.	.	.	.	guitar	.
.	C:maj/2	Woo!.	.	.	.	guitar	.
=12	=12	=12	=12	=12	=12	=12	=12
2i7	D:min7	.	.	.	.	guitar	1D 1f 1a 1cc#
.	C:maj/2	.	.	.	.	guitar	.
4-VIIc	C:5/5	.	.	.	.	guitar	4c 4e 4G
4IV	G:5	.	.	.	.	guitar	4G 4b 4dd
=13	=13	=13	=13	=13	=13	=13	=13
1i7	D:min7	.	.	.	.	guitar	1D 1f 1a 1cc#
.	C:maj/2	.	.	.	.	guitar	.
.	D:min7	.	.	.	.	guitar	.
.	C:maj/2	.	.	.	.	guitar	.
=14	=14	=14	=14	=14	=14	=14	=14
2i7	D:min7	.	.	.	.	guitar	2D 2f 2a 2cc#
.	C:maj/2	.	.	.	.	guitar	.
4IV	G:5	.	.	.	.	guitar	4.G 4.b 4.dd
4-III	F:5	.	.	.	.	guitar	8F- 8a- 8cc-
.	.	Put	.	.	.	.	.
.	.	your	.	.	.	.	.
=15	=15	=15	=15	=15	=15	=15	=15
*>Letter>B	*>Letter>B	*>Letter>B	*>Letter>B	*>Letter>B	*>Letter>B	*>Letter>B	*>Letter>B
*>Label>Verse	*>Label>Verse	*>Label>Verse	*>Label>Verse	*>Label>Verse	*>Label>Verse	*>Label>Verse	*>Label>Verse
1i	D:min	right	.	36.745	newline	voice	1D 1f 1a
.	.	hand	.	.	.	.	.
.	.	out.	D	.	.	.	.
.	.	.	.	.	.	.	.
.	.	Give	.	.	.	.	.
.	.	a	.	.	.	.	.
=16	=16	=16	=16	=16	=16	=16	=16
2i	D:min	firm	.	.	.	voice	2D 2f 2a
.	.	hand-	.	.	.	.	.
.	.	-shake.	E	.	.	.	.
.	.	.	.	.	.	.	.
4IV	G:5	.	.	.	.	voice	2G 2b 2dd
4-III	F:5	.	.	.	.	voice	4F- 4a- 4cc-
=17	=17	=17	=17	=17	=17	=17	=17
1i	D:min	Talk	.	.	.	voice	1D 1f 1a
.	.	to	.	.	.	.	.
.	.	me	.	.	.	.	.
.	.	_	.	.	.	.	.
.	.	_	.	.	.	.	.
.	.	.	.	.	.	.	.
.	.	.	.	.	.	.	.
.	.	a-	.	.	.	.	.
.	.	-bout	D	.	.	.	.
.	.	that	.	.	.	.	.
=18	=18	=18	=18	=18	=18	=18	=18
1i	D:min	one	.	.	.	voice	1D 1f 1a
.	.	big	.	.	.	.	.
.	.	break.	E	.	.	.	.
.	.	_	.	.	.	.	.
.	.	.	.	.	.	.	.
.	.	.	.	.	.	.	.
=19	=19	=19	=19	=19	=19	=19	=19
1iv	G:5	.	.	47.145	newline	voice	1G 1b- 1dd
.	.	.	.	.	.	.	.
.	.	Spread	.	.	.	.	.
.	.	the	.	.	.	.	.
.	.	ear	.	.	.	.	.
.	.	po-	.	.	.	.	.
.	.	-llu-	(F	.	.	.	.
.	.	_	.	.	.	.	.
.	.	-tion	f)	.	.	.	.
=20	=20	=20	=20	=20	=20	=20	=20
1i	D:5	_	.	.	.	voice	1D 1f 1a
.	.	.	.	.	.	.	.
.	.	.	.	.	.	.	.
.	.	both	.	.	.	.	.
.	.	far	.	.	.	.	.
.	.	and	.	.	.	.	.
.	.	wide.	G	.	.	.	.
.	.	_	.	.	.	.	.
.	.	_	.	.	.	.	.
.	.	.	.	.	.	.	.
=21	=21	=21	=21	=21	=21	=21	=21
1iv	G:5	.	.	.	.	voice	1G 1b- 1dd
.	.	.	.	.	.	.	.
.	.	Keep	.	.	.	.	.
.	.	your	.	.	.	.	.
.	.	con-	.	.	.	.	.
.	.	-tri-	.	.	.	.	.
.	.	-bu-	(F	.	.	.	.
.	.	-tions	f)	.	.	.	.
.	.	_	.	.	.	.	.
=22	=22	=22	=22	=22	=22	=22	=22
1v	A:5	.	.	.	.	voice	1A 1cc 1ee
.	G:1	by	.	.	.	voice	.
.	.	your	.	.	.	.	.
.	F:1	side,	G	.	.	voice	.
.	E:1	and	.	.	.	voice	.
=23	=23	=23	=23	=23	=23	=23	=23
*>Letter>D	*>Letter>D	*>Letter>D	*>Letter>D	*>Letter>D	*>Letter>D	*>Letter>D	*>Letter>D
*>Label>Chorus	*>Label>Chorus	*>Label>Chorus	*>Label>Chorus	*>Label>Chorus	*>Label>Chorus	*>Label>Chorus	*>Label>Chorus
4-VII	C:maj	Stroke	.	57.575	newline	voice	4C 4e 4g
2.i	D:min	me.	.	.	.	voice	2.D 2.f 2.a
.	.	Stroke	.	.	.	.	.
.	.	me.	.	.	.	.	.
.	.	.	.	.	.	.	.
.	.	.	.	.	.	.	.
.	.	Could	.	.	.	.	.
=24	=24	=24	=24	=24	=24	=24	=24
2i	D:min	_	.	.	.	voice	2D 2f 2a
.	.	be	.	.	.	.	.
.	.	a	.	.	.	.	.
.	.	win-	(H	.	.	.	.
.	.	-ner	h)	.	.	.	.
.	.	boy.	.	.	.	.	.
.	.	you	.	.	.	.	.
4iv	G:5	move	.	.	.	voice	4G 4b- 4dd
.	.	quite	.	.	.	.	.
.	.	a	.	.	.	.	.
4-III	F:5	well.	.	.	.	voice	4F- 4a- 4cc-
.	.	_	.	.	.	.	.
.	.	_	.	.	.	.	.
.	.	.	.	.	.	.	.
=25	=25	=25	=25	=25	=25	=25	=25
4-VII	C:maj	Stroke	.	.	.	voice	4C 4e 4g
2.i	D:min	me.	.	.	.	voice	2.D 2.f 2.a
.	.	Stroke	.	.	.	.	.
.	.	me.	.	.	.	.	.
.	.	.	.	.	.	.	.
=26	=26	=26	=26	=26	=26	=26	=26
2i	D:min	Stroke!.	.	.	.	voice	2D 2f 2a
.	.	.	.	.	.	.	.
.	.	.	.	.	.	.	.
4iv	G:5	.	.	.	.	voice	2G 2b- 2dd
4-III	F:5	.	.	.	.	voice	4F- 4a- 4cc-
=27	=27	=27	=27	=27	=27	=27	=27
4-VII	C:maj	Stroke	.	68.185	newline	voice	4C 4e 4g
2.i	D:min	me.	.	.	.	voice	2.D 2.f 2.a
.	.	Stroke	.	.	.	.	.
.	.	me.	.	.	.	.	.
.	.	_	.	.	.	.	.
.	.	.	.	.	.	.	.
=28	=28	=28	=28	=28	=28	=28	=28
2i	D:min	.	.	.	.	voice	2D 2f 2a
.	.	You	.	.	.	.	.
.	.	got	.	.	.	.	.
.	.	your	.	.	.	.	.
.	.	num-	(H	.	.	.	.
.	.	-ber	h)	.	.	.	.
.	.	down.	D	.	.	.	.
.	.	_	.	.	.	.	.
4iv	G:5	_	.	.	.	voice	4G 4b- 4dd
.	.	.	.	.	.	.	.
4-III	F:5	.	.	.	.	voice	4F- 4a- 4cc-
=29	=29	=29	=29	=29	=29	=29	=29
4-VII	C:maj	Stroke	.	.	.	voice	4C 4e 4g
2.i	D:min	me.	.	.	.	voice	2.D 2.f 2.a
.	.	Stroke	.	.	.	.	.
.	.	me.	.	.	.	.	.
.	.	.	.	.	.	.	.
.	.	.	.	.	.	.	.
.	.	Say	.	.	.	.	.
=30	=30	=30	=30	=30	=30	=30	=30
1i	D:min	_	.	.	.	voice	1D 1f 1a
.	.	you're	.	.	.	.	.
.	.	a	.	.	.	.	.
.	.	win-	(H	.	.	.	.
.	.	-ner;	h)	.	.	.	.
.	.	but	.	.	.	.	.
.	.	man	.	.	.	.	.
.	.	_	.	.	.	.	.
.	.	you're	.	.	.	.	.
.	.	just	.	.	.	.	.
.	.	a	.	.	.	.	.
.	.	sin-	(H	.	.	.	.
.	.	-ner	h)	.	.	.	.
.	.	now.	D	.	.	.	.
=31	=31	=31	=31	=31	=31	=31	=31
*>Letter>C	*>Letter>C	*>Letter>C	*>Letter>C	*>Letter>C	*>Letter>C	*>Letter>C	*>Letter>C
*>Label>Trans	*>Label>Trans	*>Label>Trans	*>Label>Trans	*>Label>Trans	*>Label>Trans	*>Label>Trans	*>Label>Trans
1i7	D:min7	.	.	78.78	newline	guitar	1D 1f 1a 1cc#
.	C:maj/2	.	.	.	.	guitar	.
.	D:min7	.	.	.	.	guitar	.
.	C:maj/2	.	.	.	.	guitar	.
=32	=32	=32	=32	=32	=32	=32	=32
2i7	D:min7	.	.	.	.	guitar	1D 1f 1a 1cc#
.	C:maj/2	.	.	.	.	guitar	.
4-VIIc	C:5/5	.	.	.	.	guitar	4c 4e 4G
4IV	G:5	.	.	.	.	guitar	4G 4b 4dd
=33	=33	=33	=33	=33	=33	=33	=33
1i	D:min7	.	.	.	.	guitar	1D 1f 1a
.	C:maj/2	.	.	.	.	guitar	.
.	D:min7	.	.	.	.	guitar	.
.	C:maj/2	.	.	.	.	guitar	.
=34	=34	=34	=34	=34	=34	=34	=34
2i7	D:min	.	.	.	.	guitar	2D 2f 2a 2cc#
.	C:maj/2	.	.	.	.	guitar	.
4iv	G:5	.	.	.	.	guitar	4.G 4.b- 4.dd
4-III	F:5	.	.	.	.	guitar	8F- 8a- 8cc-
.	.	Put	.	.	.	.	.
.	.	your	.	.	.	.	.
=35	=35	=35	=35	=35	=35	=35	=35
*>Letter>B	*>Letter>B	*>Letter>B	*>Letter>B	*>Letter>B	*>Letter>B	*>Letter>B	*>Letter>B
*>Label>Verse	*>Label>Verse	*>Label>Verse	*>Label>Verse	*>Label>Verse	*>Label>Verse	*>Label>Verse	*>Label>Verse
1i	D:min	left	.	89.24	newline	voice	1D 1f 1a
.	.	foot	.	.	.	.	.
.	.	out.	D	.	.	.	.
.	.	_	.	.	.	.	.
.	.	.	.	.	.	.	.
.	.	.	.	.	.	.	.
.	.	.	.	.	.	.	.
.	.	Keep	.	.	.	.	.
.	.	it	.	.	.	.	.
=36	=36	=36	=36	=36	=36	=36	=36
2i	D:min	all	.	.	.	voice	2D 2f 2a
.	.	in	.	.	.	.	.
.	.	place.	I	.	.	.	.
.	.	_	.	.	.	.	.
.	.	.	.	.	.	.	.
4iv	G:5	.	.	.	.	voice	2G 2b- 2dd
4-III	F:5	.	.	.	.	voice	4F- 4a- 4cc-
=37	=37	=37	=37	=37	=37	=37	=37
1i	D:min	Work	.	.	.	voice	1D 1f 1a
.	.	your	.	.	.	.	.
.	.	way	.	.	.	.	.
.	.	_	.	.	.	.	.
.	.	_	.	.	.	.	.
.	.	.	.	.	.	.	.
.	.	right	.	.	.	.	.
=38	=38	=38	=38	=38	=38	=38	=38
1i	D:min	in-	.	.	.	voice	1D 1f 1a
.	.	-to	.	.	.	.	.
.	.	my	.	.	.	.	.
.	.	face.	I	.	.	.	.
.	.	_	.	.	.	.	.
.	.	.	.	.	.	.	.
.	.	.	.	.	.	.	.
=39	=39	=39	=39	=39	=39	=39	=39
1iv	G:5	.	.	99.72	newline	voice	1G 1b- 1dd
.	.	.	.	.	.	.	.
.	.	First	.	.	.	.	.
.	.	you	.	.	.	.	.
.	.	try	.	.	.	.	.
.	.	to	.	.	.	.	.
.	.	bed	J	.	.	.	.
.	.	_	.	.	.	.	.
.	.	me.	.	.	.	.	.
=40	=40	=40	=40	=40	=40	=40	=40
1i	D:5	.	.	.	.	voice	1D 1f 1a
.	.	.	.	.	.	.	.
.	.	You	.	.	.	.	.
.	.	make	.	.	.	.	.
.	.	my	.	.	.	.	.
.	.	back-	.	.	.	.	.
.	.	-bone	.	.	.	.	.
.	.	slide;	G	.	.	.	.
=41	=41	=41	=41	=41	=41	=41	=41
1iv	G:5	.	.	.	.	voice	1G 1b- 1dd
.	.	.	.	.	.	.	.
.	.	but	.	.	.	.	.
.	.	when	.	.	.	.	.
.	.	you	.	.	.	.	.
.	.	find	.	.	.	.	.
.	.	you	.	.	.	.	.
.	.	bled	J	.	.	.	.
.	.	me:	.	.	.	.	.
.	.	_	.	.	.	.	.
=42	=42	=42	=42	=42	=42	=42	=42
1v	A:5	.	.	.	.	voice	1A 1cc 1ee
.	G:1	slip	.	.	.	voice	.
.	.	on	.	.	.	.	.
.	F:1	by.	.	.	.	voice	.
.	E:1	Keep	.	.	.	voice	.
.	.	on!.	.	.	.	.	.
=43	=43	=43	=43	=43	=43	=43	=43
*>Letter>D	*>Letter>D	*>Letter>D	*>Letter>D	*>Letter>D	*>Letter>D	*>Letter>D	*>Letter>D
*>Label>Chorus	*>Label>Chorus	*>Label>Chorus	*>Label>Chorus	*>Label>Chorus	*>Label>Chorus	*>Label>Chorus	*>Label>Chorus
4-VII	C:maj	Stroke	.	110.23	newline	voice	4C 4e 4g
2.i	D:min	me.	.	.	.	voice	2.D 2.f 2.a
.	.	Stroke	.	.	.	.	.
.	.	me.	.	.	.	.	.
.	.	.	.	.	.	.	.
.	.	.	.	.	.	.	.
.	.	Give	.	.	.	.	.
=44	=44	=44	=44	=44	=44	=44	=44
2i	D:min	_	.	.	.	voice	2D 2f 2a
.	.	me	.	.	.	.	.
.	.	the	.	.	.	.	.
.	.	bus-	.	.	.	.	.
.	.	-i-	.	.	.	.	.
.	.	-ness	.	.	.	.	.
.	.	all	.	.	.	.	.
4iv	G:5	_	.	.	.	voice	4G 4b- 4dd
.	.	night	.	.	.	.	.
4-III	F:5	long.	.	.	.	voice	4F- 4a- 4cc-
.	.	_	.	.	.	.	.
.	.	_	.	.	.	.	.
.	.	.	.	.	.	.	.
=45	=45	=45	=45	=45	=45	=45	=45
4-VII	C:maj	Stroke	.	.	.	voice	4C 4e 4g
2.i	D:min	me.	.	.	.	voice	2.D 2.f 2.a
.	.	Stroke	.	.	.	.	.
.	.	me.	.	.	.	.	.
.	.	.	.	.	.	.	.
=46	=46	=46	=46	=46	=46	=46	=46
2i	D:min	Stroke!.	.	.	.	voice	2D 2f 2a
.	.	.	.	.	.	.	.
.	.	.	.	.	.	.	.
4iv	G:5	.	.	.	.	voice	2G 2b- 2dd
4-III	F:5	.	.	.	.	voice	4F- 4a- 4cc-
=47	=47	=47	=47	=47	=47	=47	=47
4-VII	C:maj	Stroke	.	120.83	newline	voice	4C 4e 4g
2.i	D:min	me.	.	.	.	voice	2.D 2.f 2.a
.	.	Stroke	.	.	.	.	.
.	.	me.	.	.	.	.	.
.	.	.	.	.	.	.	.
=48	=48	=48	=48	=48	=48	=48	=48
2i	D:min	.	.	.	.	voice	2D 2f 2a
.	.	You're	.	.	.	.	.
.	.	so	.	.	.	.	.
.	.	to-	.	.	.	.	.
.	.	-ge-	.	.	.	.	.
.	.	-ther	.	.	.	.	.
.	.	boy.	.	.	.	.	.
.	.	_	.	.	.	.	.
4iv	G:5	_	.	.	.	voice	4G 4b- 4dd
.	.	.	.	.	.	.	.
.	.	.	.	.	.	.	.
4-III	F:5	.	.	.	.	voice	4F- 4a- 4cc-
=49	=49	=49	=49	=49	=49	=49	=49
4-VII	C:maj	Stroke	.	.	.	voice	4C 4e 4g
2.i	D:min	me.	.	.	.	voice	2.D 2.f 2.a
.	.	Stroke	.	.	.	.	.
.	.	me.	.	.	.	.	.
.	.	.	.	.	.	.	.
.	.	.	.	.	.	.	.
.	.	Say	.	.	.	.	.
=50	=50	=50	=50	=50	=50	=50	=50
1i	D:min	_	.	.	.	voice	1D 1f 1a
.	.	you're	.	.	.	.	.
.	.	a	.	.	.	.	.
.	.	win-	(H	.	.	.	.
.	.	-ner;	h)	.	.	.	.
.	.	but	.	.	.	.	.
.	.	man	.	.	.	.	.
.	.	_	.	.	.	.	.
.	.	you're	.	.	.	.	.
.	.	just	.	.	.	.	.
.	.	a	.	.	.	.	.
.	.	sin-	(H	.	.	.	.
.	.	-ner	h)	.	.	.	.
.	.	now.	D	.	.	.	.
=51	=51	=51	=51	=51	=51	=51	=51
*>Letter>A	*>Letter>A	*>Letter>A	*>Letter>A	*>Letter>A	*>Letter>A	*>Letter>A	*>Letter>A
*>Label>Interlude	*>Label>Interlude	*>Label>Interlude	*>Label>Interlude	*>Label>Interlude	*>Label>Interlude	*>Label>Interlude	*>Label>Interlude
2i	D:5	_	.	131.465	newline	drums	2D 2f 2a
.	.	.	.	.	.	.	.
.	.	.	.	.	.	.	.
.	.	.	.	.	.	.	.
2r	N	Stroke!.	.	.	.	drums	2r
.	.	.	.	.	.	.	.
.	.	.	.	.	.	.	.
=52	=52	=52	=52	=52	=52	=52	=52
2r	N	Stroke!.	.	.	.	drums	2r
.	.	.	.	.	.	.	.
.	.	.	.	.	.	.	.
2r	N	Stroke!.	.	.	.	drums	2r
.	.	.	.	.	.	.	.
.	.	.	.	.	.	.	.
=53	=53	=53	=53	=53	=53	=53	=53
2r	N	Stroke!.	.	.	.	drums	2r
.	.	.	.	.	.	.	.
.	.	.	.	.	.	.	.
2r	N	Stroke!.	.	.	.	drums	2r
.	.	.	.	.	.	.	.
.	.	.	.	.	.	.	.
=54	=54	=54	=54	=54	=54	=54	=54
2r	N	Stroke!.	.	.	.	drums	2r
.	.	.	.	.	.	.	.
.	.	.	.	.	.	.	.
2r	N	Stroke!.	.	.	.	drums	2r
.	.	.	.	.	.	.	.
.	.	.	.	.	.	.	.
=55	=55	=55	=55	=55	=55	=55	=55
*>Letter>C	*>Letter>C	*>Letter>C	*>Letter>C	*>Letter>C	*>Letter>C	*>Letter>C	*>Letter>C
*>Label>Trans	*>Label>Trans	*>Label>Trans	*>Label>Trans	*>Label>Trans	*>Label>Trans	*>Label>Trans	*>Label>Trans
1i7	D:min7	.	.	141.99	newline	guitar	1D 1f 1a 1cc#
.	C:maj/2	.	.	.	.	guitar	.
.	D:min7	.	.	.	.	guitar	.
.	C:maj/2	.	.	.	.	guitar	.
=56	=56	=56	=56	=56	=56	=56	=56
2i7	D:min7	.	.	.	.	guitar	1D 1f 1a 1cc#
.	C:maj/2	.	.	.	.	guitar	.
4-VIIc	C:5/5	.	.	.	.	guitar	4c 4e 4G
4IV	G:5	.	.	.	.	guitar	4G 4b 4dd
=57	=57	=57	=57	=57	=57	=57	=57
1i7	D:min7	.	.	.	.	guitar	1D 1f 1a 1cc#
.	C:maj/2	.	.	.	.	guitar	.
.	D:min7	.	.	.	.	guitar	.
.	C:maj/2	.	.	.	.	guitar	.
=58	=58	=58	=58	=58	=58	=58	=58
2i7	D:min7	.	.	.	.	guitar	2D 2f 2a 2cc#
.	C:maj/2	.	.	.	.	guitar	.
4IV	G:5	.	.	.	.	guitar	4.G 4.b 4.dd
4-III	F:5	.	.	.	.	guitar	8F- 8a- 8cc-
.	.	Bet-	.	.	.	.	.
.	.	-ter	.	.	.	.	.
=59	=59	=59	=59	=59	=59	=59	=59
*>Letter>B	*>Letter>B	*>Letter>B	*>Letter>B	*>Letter>B	*>Letter>B	*>Letter>B	*>Letter>B
*>Label>Verse	*>Label>Verse	*>Label>Verse	*>Label>Verse	*>Label>Verse	*>Label>Verse	*>Label>Verse	*>Label>Verse
1i	D:min	lis-	.	152.515	newline	voice	1D 1f 1a
.	.	-ten	.	.	.	.	.
.	.	now.	D	.	.	.	.
.	.	_	.	.	.	.	.
.	.	.	.	.	.	.	.
.	.	.	.	.	.	.	.
.	.	.	.	.	.	.	.
.	.	Said	.	.	.	.	.
.	.	it	.	.	.	.	.
=60	=60	=60	=60	=60	=60	=60	=60
2i	D:min	ain't	.	.	.	voice	2D 2f 2a
.	.	no	.	.	.	.	.
.	.	joke.	K	.	.	.	.
.	.	_	.	.	.	.	.
.	.	_	.	.	.	.	.
.	.	.	.	.	.	.	.
4iv	G:5	.	.	.	.	voice	4G 4b- 4dd
4-III	F:5	.	.	.	.	voice	4F- 4a- 4cc-
.	.	You	.	.	.	.	.
.	.	let	.	.	.	.	.
.	.	you're	.	.	.	.	.
=61	=61	=61	=61	=61	=61	=61	=61
1i	D:min	cons-	.	.	.	voice	1D 1f 1a
.	.	-ience	.	.	.	.	.
.	.	fail	.	.	.	.	.
.	.	_	.	.	.	.	.
.	.	ya.	.	.	.	.	.
.	.	.	.	.	.	.	.
.	.	.	.	.	.	.	.
.	.	.	.	.	.	.	.
.	.	Just	.	.	.	.	.
=62	=62	=62	=62	=62	=62	=62	=62
1i	D:min	do	.	.	.	voice	1D 1f 1a
.	.	the	.	.	.	.	.
.	.	stroke.	K	.	.	.	.
.	.	_	.	.	.	.	.
.	.	.	.	.	.	.	.
.	.	.	.	.	.	.	.
=63	=63	=63	=63	=63	=63	=63	=63
1iv	G:5	.	.	162.99	newline	voice	1G 1b- 1dd
.	.	.	.	.	.	.	.
.	.	Don-	.	.	.	.	.
.	.	-'tcha	.	.	.	.	.
.	.	take	.	.	.	.	.
.	.	no	.	.	.	.	.
.	.	chanc-	(L	.	.	.	.
.	.	_	.	.	.	.	.
.	.	-es.	l)	.	.	.	.
=64	=64	=64	=64	=64	=64	=64	=64
1i	D:5	.	.	.	.	voice	1D 1f 1a
.	.	.	.	.	.	.	.
.	.	Keep	.	.	.	.	.
.	.	your	.	.	.	.	.
.	.	eye	.	.	.	.	.
.	.	on	.	.	.	.	.
.	.	top.	M	.	.	.	.
.	.	.	.	.	.	.	.
.	.	.	.	.	.	.	.
=65	=65	=65	=65	=65	=65	=65	=65
1iv	G:5	.	.	.	.	voice	1G 1b- 1dd
.	.	.	.	.	.	.	.
.	.	Do	.	.	.	.	.
.	.	your	.	.	.	.	.
.	.	fan-	(L	.	.	.	.
.	.	-cy	l)	.	.	.	.
.	.	danc-	(L	.	.	.	.
.	.	-es.	l)	.	.	.	.
.	.	_	.	.	.	.	.
=66	=66	=66	=66	=66	=66	=66	=66
1v	A:5	.	.	.	.	voice	1A 1cc 1ee
.	G:1	You	.	.	.	voice	.
.	.	can't	.	.	.	.	.
.	F:1	stop.	M	.	.	voice	.
.	E:1	You	.	.	.	voice	.
.	.	just	.	.	.	.	.
=67	=67	=67	=67	=67	=67	=67	=67
*>Letter>D	*>Letter>D	*>Letter>D	*>Letter>D	*>Letter>D	*>Letter>D	*>Letter>D	*>Letter>D
*>Label>Chorus	*>Label>Chorus	*>Label>Chorus	*>Label>Chorus	*>Label>Chorus	*>Label>Chorus	*>Label>Chorus	*>Label>Chorus
4-VII	C:maj	Stroke	.	173.475	newline	voice	4C 4e 4g
2.i	D:min	me.	.	.	.	.	2.D 2.f 2.a
.	.	Stroke	.	.	.	.	.
.	.	me.	.	.	.	.	.
.	.	.	.	.	.	.	.
=68	=68	=68	=68	=68	=68	=68	=68
1i	D:min	Stroke!.	.	.	.	voice	1D 1f 1a
.	.	.	.	.	.	.	.
.	.	.	.	.	.	.	.
.	.	Stroke!.	.	.	.	.	.
.	.	.	.	.	.	.	.
.	.	.	.	.	.	.	.
=69	=69	=69	=69	=69	=69	=69	=69
1i	D:min	Stroke	.	.	.	voice	1D 1f 1a
.	.	me.	.	.	.	.	.
.	.	Stroke	.	.	.	.	.
.	.	me.	.	.	.	.	.
.	.	.	.	.	.	.	.
=70	=70	=70	=70	=70	=70	=70	=70
1i	D:min	Stroke!.	.	.	.	voice	1D 1f 1a
.	.	.	.	.	.	.	.
.	.	.	.	.	.	.	.
.	.	Stroke!.	.	.	.	.	.
.	.	.	.	.	.	.	.
.	.	.	.	.	.	.	.
=71	=71	=71	=71	=71	=71	=71	=71
1i	D:min	Stroke	.	184.01	newline	voice	1D 1f 1a
.	.	me.	.	.	.	.	.
.	.	Stroke	.	.	.	.	.
.	.	me.	.	.	.	.	.
.	.	.	.	.	.	.	.
=72	=72	=72	=72	=72	=72	=72	=72
1i	D:min	Stroke!.	.	.	.	voice	1D 1f 1a
.	.	.	.	.	.	.	.
.	.	.	.	.	.	.	.
.	.	Stroke!.	.	.	.	.	.
.	.	.	.	.	.	.	.
.	.	.	.	.	.	.	.
=73	=73	=73	=73	=73	=73	=73	=73
1i	D:min	Stroke	.	.	.	voice	1D 1f 1a
.	.	me.	.	.	.	.	.
.	.	Stroke	.	.	.	.	.
.	.	me.	.	.	.	.	.
.	.	.	.	.	.	.	.
=74	=74	=74	=74	=74	=74	=74	=74
2i	D:min	Stroke!.	.	.	.	voice	2D 2f 2a
.	.	.	.	.	.	.	.
.	.	Do	.	.	.	.	.
.	.	it!.	.	.	.	.	.
4-VIIc	C:5/5	.	.	.	.	.	2c 2e 2G
4IV	G:5	.	.	.	.	.	4G 4b 4dd
=75	=75	=75	=75	=75	=75	=75	=75
*>Letter>D	*>Letter>D	*>Letter>D	*>Letter>D	*>Letter>D	*>Letter>D	*>Letter>D	*>Letter>D
*>Label>Chorus	*>Label>Chorus	*>Label>Chorus	*>Label>Chorus	*>Label>Chorus	*>Label>Chorus	*>Label>Chorus	*>Label>Chorus
4-VII	C:maj	Stroke	.	194.48	newline	voice	4C 4e 4g
2.i	D:min	me.	.	.	.	voice	2.D 2.f 2.a
.	.	Stroke	.	.	.	.	.
.	.	me.	.	.	.	.	.
.	.	.	.	.	.	.	.
=76	=76	=76	=76	=76	=76	=76	=76
2i	D:min	Stroke!.	.	.	.	voice	2D 2f 2a
.	.	.	.	.	.	.	.
.	.	.	.	.	.	.	.
4-VIIc	C:5/5	.	.	.	.	voice	2c 2e 2G
4IV	G:5	.	.	.	.	voice	4G 4b 4dd
=77	=77	=77	=77	=77	=77	=77	=77
4-VII	C:maj	Stroke	.	.	.	voice	4C 4e 4g
2.i	D:min	me.	.	.	.	voice	2.D 2.f 2.a
.	.	Stroke	.	.	.	.	.
.	.	me.	.	.	.	.	.
.	.	Keep	.	.	.	.	.
.	.	on!.	.	.	.	.	.
=78	=78	=78	=78	=78	=78	=78	=78
2i	D:min	Stroke!.	.	.	.	voice	2D 2f 2a
.	.	.	.	.	.	.	.
.	.	.	.	.	.	.	.
4iv	G:5	.	.	.	.	voice	2G 2b- 2dd
4-III	F:5	.	.	.	.	voice	4F- 4a- 4cc-
=79	=79	=79	=79	=79	=79	=79	=79
4-VII	C:maj	Stroke	.	204.96	newline	voice	4C 4e 4g
2.i	D:min	me.	.	.	.	voice	2.D 2.f 2.a
.	.	Stroke	.	.	.	.	.
.	.	me.	.	.	.	.	.
.	.	Hang	.	.	.	.	.
.	.	_	.	.	.	.	.
.	.	on	.	.	.	.	.
.	.	a	.	.	.	.	.
=80	=80	=80	=80	=80	=80	=80	=80
2i	D:min	Stroke!.	.	.	.	voice	2D 2f 2a
.	.	.	.	.	.	.	.
.	.	.	.	.	.	.	.
4-VIIc	C:5/5	.	.	.	.	voice	2c 2e 2G
4IV	G:5	.	.	.	.	voice	4G 4b 4dd
=81	=81	=81	=81	=81	=81	=81	=81
4-VII	C:maj	Stroke	.	.	.	voice	4C 4e 4g
2.i	D:min	me.	.	.	.	voice	2.D 2.f 2.a
.	.	Stroke	.	.	.	.	.
.	.	me.	.	.	.	.	.
.	.	.	.	.	.	.	.
.	.	.	.	.	.	.	.
.	.	Say	.	.	.	.	.
=82	=82	=82	=82	=82	=82	=82	=82
2i	D:min	_	.	.	.	voice	2D 2f 2a
.	.	you're	.	.	.	.	.
.	.	a	.	.	.	.	.
.	.	win-	.	.	.	.	.
.	.	-ner;	.	.	.	.	.
.	.	but	.	.	.	.	.
.	.	man	.	.	.	.	.
4iv	G:5	_	.	.	.	voice	4G 4b- 4dd
.	.	you're	.	.	.	.	.
.	.	just	.	.	.	.	.
.	.	a	.	.	.	.	.
4-III	F:5	sin-	.	.	.	voice	4F- 4a- 4cc-
.	.	-ner	.	.	.	.	.
.	.	now.	.	.	.	.	.
*-	*-	*-	*-	*-	*-	*-	*-
!!!BillboardChartDate: 1981/05/16
!!!BillboardPeak: 17
!!!BillboardWeeksOnChart: 20
!!!COC: Billy Squier
!!!EMD: Original transcription was in augmentation. Also, the wrong number of measures at the beginning. I've fixed these things.
!!!EMD: The funky groove part is marked as alternating between Dm and C every beat...but I'm not sure about that.
!!!ENC: Nathaniel Condit-Schultz
!!!EST: Awating manual error checking and editing.
!!!OTL: The Stroke
!!!RDF**harte: Chris Harte's syntax, used by MIREX
!!!RDF**harmony: **recip + pitch class of root + harmonic quality
!!!RDF**leadinstrument: original McGill primary instrumentation annotation
!!!RDF**phrase: newline = linebreak in original McGill transcription
!!!RDF**timestamp: McGill audio timestamp in seconds
!!!RDT: 2017/01/12/
!!!SampleActualRank: 84
!!!SampleID#: 0963
!!!SampleTargetRank: 82
